Obsidian/status/16s/battery-level-60-symbolic.svg

<svg height="16.001" width="16" xmlns="http://www.w3.org/2000/svg"><path d="m5.469 0c-.49 0-.796.216-1.032.456-.235.24-.437.556-.437 1.03v.514h-2v14h12v-14h-2v-.406l-.002-.028a1.616 1.616 0 0 0 -.416-1.012c-.236-.278-.62-.584-1.2-.552l.057-.002zm.531 2h4v2h2v10h-8v-10h2z" fill="#bebebe"/><path d="m5 7.9999995v5.0000005h6v-5.0000005z" fill="#33d17a"/></svg>

<?xml version="1.0" encoding="UTF-8" standalone="no"?>
<svg
   xmlns:dc="http://purl.org/dc/elements/1.1/"
   xmlns:cc="http://creativecommons.org/ns#"
   xmlns:rdf="http://www.w3.org/1999/02/22-rdf-syntax-ns#"
   xmlns:svg="http://www.w3.org/2000/svg"
   xmlns="http://www.w3.org/2000/svg"
   width="16"
   height="16.001"
   version="1.1"
   id="svg6">
  <metadata
     id="metadata12">
    <rdf:RDF>
      <cc:Work
         rdf:about="">
        <dc:format>image/svg+xml</dc:format>
        <dc:type
           rdf:resource="http://purl.org/dc/dcmitype/StillImage" />
        <dc:title></dc:title>
      </cc:Work>
    </rdf:RDF>
  </metadata>
  <defs
     id="defs10" />
  <path
     d="M5.469 0c-.49 0-.796.216-1.032.456C4.202.696 4 1.012 4 1.486V2H2v14h12V2h-2v-.406l-.002-.028a1.616 1.616 0 00-.416-1.012c-.236-.278-.62-.584-1.2-.552L10.439 0zM6 2h4v2h2v10H4V4h2z"
     style="line-height:normal;font-variant-ligatures:normal;font-variant-position:normal;font-variant-caps:normal;font-variant-numeric:normal;font-variant-alternates:normal;font-feature-settings:normal;text-indent:0;text-align:start;text-decoration-line:none;text-decoration-style:solid;text-decoration-color:#000;text-transform:none;text-orientation:mixed;white-space:normal;shape-padding:0;isolation:auto;mix-blend-mode:normal;solid-color:#000;solid-opacity:1;marker:none"
     color="#bebebe"
     font-weight="400"
     font-family="sans-serif"
     overflow="visible"
     fill="#bebebe"
     id="path2" />
  <path
     class="success"
     d="M 5,7.9999995 V 13 h 6 V 7.9999995 Z"
     style="color:#000000;overflow:visible;fill:#33d17a;marker:none"
     overflow="visible"
     id="path4" />
</svg>
